assets/icons/u0054-T.svg

<?xml version="1.0" encoding="UTF-8" standalone="no"?>
<svg
   xmlns:svg="http://www.w3.org/2000/svg"
   xmlns="http://www.w3.org/2000/svg"
   version="1.1"
   width="240"
   height="150">
  <path
     d="m 6.125,11.3125 0,13.1875 59.75,0 0,126.8125 22.28125,0 0,-126.8125 59.46875,0 0,-13.1875 -141.5,0 z m 130.125,58.5 -4.5,16.84375 74.59375,57.4375 -93.15625,11.8125 -4.5,16.84375 116.03125,-16.1875 3.9375,-14.71875 L 136.25,69.8125 z" />
</svg>

<?xml version="1.0" encoding="UTF-8" standalone="no"?>
<!-- Created with Inkscape (http://www.inkscape.org/) -->

<svg
   xmlns:dc="http://purl.org/dc/elements/1.1/"
   xmlns:cc="http://creativecommons.org/ns#"
   xmlns:rdf="http://www.w3.org/1999/02/22-rdf-syntax-ns#"
   xmlns:svg="http://www.w3.org/2000/svg"
   xmlns="http://www.w3.org/2000/svg"
   xmlns:sodipodi="http://sodipodi.sourceforge.net/DTD/sodipodi-0.dtd"
   xmlns:inkscape="http://www.inkscape.org/namespaces/inkscape"
   width="240"
   height="150"
   id="svg3296"
   version="1.1"
   inkscape:version="0.48.3.1 r9886"
   sodipodi:docname="u0054-T.svg">
  <defs
     id="defs3298" />
  <sodipodi:namedview
     id="base"
     pagecolor="#ffffff"
     bordercolor="#666666"
     borderopacity="1.0"
     inkscape:pageopacity="0.0"
     inkscape:pageshadow="2"
     inkscape:zoom="0.7"
     inkscape:cx="91.156323"
     inkscape:cy="22.374706"
     inkscape:document-units="px"
     inkscape:current-layer="svg3296"
     showgrid="false"
     inkscape:window-width="1012"
     inkscape:window-height="617"
     inkscape:window-x="3"
     inkscape:window-y="129"
     inkscape:window-maximized="0"
     fit-margin-top="0"
     fit-margin-left="0"
     fit-margin-right="0"
     fit-margin-bottom="0" />
  <metadata
     id="metadata3301">
    <rdf:RDF>
      <cc:Work
         rdf:about="">
        <dc:format>image/svg+xml</dc:format>
        <dc:type
           rdf:resource="http://purl.org/dc/dcmitype/StillImage" />
        <dc:title />
      </cc:Work>
    </rdf:RDF>
  </metadata>
  <path
     style="font-size:33.44191742px;font-style:normal;font-variant:normal;font-weight:normal;font-stretch:normal;line-height:125%;letter-spacing:0px;word-spacing:0px;fill:#000000;fill-opacity:1;stroke:none;font-family:Andale Mono;-inkscape-font-specification:Andale Mono"
     d="M 6.125 11.3125 L 6.125 24.5 L 65.875 24.5 L 65.875 151.3125 L 88.15625 151.3125 L 88.15625 24.5 L 147.625 24.5 L 147.625 11.3125 L 6.125 11.3125 z M 136.25 69.8125 L 131.75 86.65625 L 206.34375 144.09375 L 113.1875 155.90625 L 108.6875 172.75 L 224.71875 156.5625 L 228.65625 141.84375 L 136.25 69.8125 z "
     id="path3157-4" />
</svg>
